openmetadata-ui/src/main/resources/ui/src/assets/svg/topic.svg

<svg width="16" height="14" viewBox="0 0 16 14" fill="none" xmlns="http://www.w3.org/2000/svg">
<path d="M8.39801 14C8.39366 13.993 8.38977 13.984 8.38541 13.9768C8.34513 13.9079 8.30592 13.8351 8.26752 13.7566C8.26151 13.7441 8.25574 13.7304 8.24962 13.718C8.21641 13.6469 8.18379 13.5722 8.15199 13.4942L8.12596 13.4306C8.09074 13.3408 8.05647 13.2479 8.02314 13.1494L8.00442 13.0913C7.97592 13.0048 7.94836 12.9157 7.92162 12.8238L7.89972 12.7486C7.86945 12.641 7.84024 12.5302 7.81186 12.4159L7.7936 12.3389C7.76946 12.2394 7.74697 12.138 7.72459 12.0346C7.71882 12.0073 7.71281 11.9805 7.70716 11.953C7.6816 11.8313 7.65758 11.7059 7.63485 11.5766C7.62931 11.5462 7.62425 11.5157 7.61895 11.4852C7.59916 11.3733 7.5802 11.2595 7.56206 11.1439L7.54923 11.0629C7.52862 10.9281 7.5093 10.7911 7.49105 10.6517C7.48645 10.618 7.48245 10.5835 7.47809 10.5495C7.46243 10.4278 7.44747 10.3027 7.43345 10.1769L7.42497 10.1017C7.40896 9.95761 7.39459 9.81183 7.38187 9.66471L7.37221 9.55401C7.36055 9.41922 7.34984 9.2837 7.33982 9.14714L7.3357 9.09171C7.3251 8.93954 7.31627 8.78737 7.30803 8.63521L7.30131 8.52197C7.29401 8.37709 7.28777 8.23205 7.28247 8.08672L7.28106 8.05061C7.27576 7.89532 7.27163 7.74003 7.26893 7.5846L7.26704 7.47077C7.26457 7.31414 7.26292 7.15737 7.26292 7.00089C7.26292 6.84456 7.26457 6.68779 7.26704 6.53102L7.26893 6.41719C7.27187 6.2616 7.27587 6.10631 7.28106 5.95132L7.28247 5.91506C7.28777 5.76958 7.29401 5.62455 7.30131 5.47981L7.30732 5.36598C7.31545 5.21382 7.3244 5.06165 7.335 4.90948L7.33912 4.8542C7.34889 4.71764 7.35973 4.58196 7.37151 4.44718L7.38116 4.33648C7.39459 4.18951 7.40896 4.04388 7.42427 3.89944L7.43181 3.82306C7.4457 3.69734 7.46066 3.57356 7.47632 3.45052C7.48068 3.41649 7.4848 3.38201 7.4894 3.34828C7.50777 3.20904 7.52708 3.07203 7.54758 2.9371L7.5603 2.85611C7.57843 2.7405 7.59751 2.62667 7.6173 2.51478C7.6226 2.48431 7.62766 2.45385 7.6332 2.42339C7.65628 2.29499 7.68042 2.16958 7.70551 2.04698C7.71105 2.01964 7.71705 1.99274 7.72294 1.9654C7.74532 1.86138 7.76828 1.76003 7.79184 1.66106L7.81021 1.58409C7.83848 1.46966 7.8678 1.35881 7.89795 1.25137L7.91997 1.17633C7.94659 1.08434 7.97427 0.995181 8.00265 0.908695L8.02149 0.850592C8.05482 0.752664 8.08898 0.659194 8.12419 0.569439L8.15034 0.505838C8.18214 0.427822 8.21464 0.353671 8.24797 0.282045C8.25398 0.269711 8.25975 0.255891 8.26587 0.243409C8.30415 0.164947 8.34349 0.0912412 8.38376 0.0231819C8.38812 0.0161976 8.39201 0.00698436 8.39637 1.06788e-07L5.81573 0C5.21155 -2.5001e-08 4.36854 2.66293 4.36854 6.9997C4.36853 11.3365 5.21155 13.9994 5.81573 13.9994L8.39801 14Z" fill="#1e61f0"/>
<path d="M4.02948 14C4.02512 13.993 4.02123 13.984 4.01688 13.9768C3.9766 13.9079 3.93738 13.8351 3.89899 13.7566C3.89298 13.7441 3.88721 13.7304 3.88108 13.718C3.84787 13.6469 3.81525 13.5722 3.78345 13.4942L3.75742 13.4306C3.72221 13.3408 3.68794 13.2479 3.65461 13.1494L3.63588 13.0913C3.60738 13.0048 3.57982 12.9157 3.55309 12.8238L3.53118 12.7486C3.50091 12.641 3.47171 12.5302 3.44332 12.4159L3.42507 12.3389C3.40092 12.2394 3.37843 12.138 3.35605 12.0346C3.35028 12.0073 3.34428 11.9805 3.33862 11.953C3.31307 11.8313 3.28904 11.7059 3.26631 11.5766C3.26078 11.5462 3.25571 11.5157 3.25041 11.4852C3.23063 11.3733 3.21166 11.2595 3.19353 11.1439L3.18069 11.0629C3.16032 10.9281 3.14088 10.7911 3.12251 10.6517C3.11792 10.618 3.11391 10.5835 3.10956 10.5495C3.09389 10.4278 3.07893 10.3027 3.06492 10.1769L3.05644 10.1017C3.04042 9.95761 3.02605 9.81183 3.01333 9.66471L3.00368 9.55401C2.99202 9.41922 2.9813 9.2837 2.97129 9.14714L2.96717 9.09171C2.95657 8.93954 2.94774 8.78737 2.93949 8.63521L2.93278 8.52197C2.92548 8.37709 2.91923 8.23205 2.91393 8.08672L2.91252 8.05061C2.90722 7.89532 2.9031 7.74003 2.90039 7.5846L2.89851 7.47077C2.89603 7.31414 2.89438 7.15737 2.89438 7.00089C2.89438 6.84456 2.89603 6.68779 2.89851 6.53102L2.90039 6.41719C2.90334 6.2616 2.90734 6.10631 2.91252 5.95132L2.91393 5.91506C2.91923 5.76958 2.92548 5.62455 2.93278 5.47981L2.93878 5.36598C2.94691 5.21382 2.95586 5.06165 2.96646 4.90948L2.97058 4.8542C2.98036 4.71764 2.99119 4.58196 3.00297 4.44718L3.01263 4.33648C3.02605 4.18951 3.04042 4.04388 3.05573 3.89944L3.06327 3.82306C3.07717 3.69734 3.09213 3.57356 3.10779 3.45052C3.11215 3.41649 3.11627 3.38201 3.12086 3.34828C3.13923 3.20904 3.15855 3.07203 3.17904 2.9371L3.19176 2.85611C3.20978 2.7405 3.22874 2.62667 3.24876 2.51478C3.25406 2.48431 3.25913 2.45385 3.26466 2.42339C3.28775 2.29499 3.31189 2.16958 3.33697 2.04698C3.34251 2.01964 3.34852 1.99274 3.35441 1.9654C3.37678 1.86138 3.39975 1.76003 3.4233 1.66106L3.44167 1.58409C3.46982 1.46966 3.49903 1.35881 3.52942 1.25137L3.55144 1.17633C3.57806 1.08434 3.60573 0.995181 3.63412 0.908695L3.65296 0.850592C3.68629 0.752664 3.72044 0.659194 3.75566 0.569439L3.7818 0.505838C3.8136 0.427822 3.84611 0.353671 3.87944 0.282045C3.88544 0.269711 3.89121 0.255891 3.89734 0.243409C3.93561 0.164947 3.97495 0.0912412 4.01523 0.0231819C4.01959 0.0161976 4.02347 0.00698436 4.02783 1.06788e-07L1.44719 0C0.843018 -2.50009e-08 2.00245e-07 2.66293 0 6.9997C-2.00244e-07 11.3365 0.843017 13.9994 1.44719 13.9994L4.02948 14Z" fill="#1e61f0"/>
<path d="M12.7666 14C12.7622 13.993 12.7583 13.984 12.754 13.9768C12.7137 13.9079 12.6745 13.8351 12.6361 13.7566C12.6301 13.7441 12.6243 13.7304 12.6182 13.718C12.585 13.6469 12.5523 13.5722 12.5217 13.4942L12.4957 13.4306C12.4605 13.3408 12.4262 13.2479 12.393 13.1494L12.3741 13.0913C12.3456 13.0048 12.3181 12.9157 12.2913 12.8238L12.2694 12.7486C12.2392 12.641 12.21 12.5302 12.1816 12.4159L12.1633 12.3389C12.1392 12.2394 12.1168 12.138 12.0943 12.0346C12.0885 12.0073 12.0825 11.9805 12.077 11.953C12.0514 11.8313 12.0273 11.7059 12.0046 11.5766C11.999 11.5462 11.994 11.5157 11.9887 11.4852C11.9689 11.3733 11.9499 11.2595 11.9318 11.1439L11.9189 11.0629C11.8983 10.9281 11.879 10.7911 11.8609 10.6517C11.8563 10.618 11.8522 10.5835 11.8478 10.5495C11.8321 10.4278 11.8172 10.3027 11.8032 10.1769L11.7947 10.1017C11.7787 9.95761 11.7643 9.81183 11.7516 9.66471L11.7419 9.55401C11.7304 9.41922 11.7196 9.2837 11.7097 9.14714L11.7055 9.09171C11.6949 8.93954 11.686 8.78737 11.6777 8.63521L11.6699 8.52197C11.6626 8.37709 11.6563 8.23205 11.651 8.08672L11.6496 8.05061C11.6443 7.89532 11.6402 7.74003 11.6375 7.5846L11.6356 7.47077C11.6331 7.31414 11.6315 7.15737 11.6315 7.00089C11.6315 6.84456 11.6331 6.68779 11.6356 6.53102L11.6375 6.41719C11.6404 6.2616 11.6444 6.10631 11.6496 5.95132L11.651 5.91506C11.6563 5.76958 11.6626 5.62455 11.6699 5.47981L11.6759 5.36598C11.684 5.21382 11.6929 5.06165 11.7035 4.90948L11.7077 4.8542C11.7174 4.71764 11.7283 4.58196 11.7401 4.44718L11.7497 4.33648C11.7631 4.18951 11.7775 4.04388 11.7928 3.89944L11.8004 3.82306C11.8142 3.69734 11.8292 3.57356 11.8449 3.45052C11.8492 3.41649 11.8533 3.38201 11.8579 3.34828C11.8763 3.20904 11.8956 3.07203 11.9161 2.9371L11.9288 2.85611C11.947 2.7405 11.9661 2.62667 11.9858 2.51478C11.9911 2.48431 11.9962 2.45385 12.0017 2.42339C12.0248 2.29499 12.049 2.16958 12.0741 2.04698C12.0796 2.01964 12.0856 1.99274 12.0915 1.9654C12.1139 1.86138 12.1368 1.76003 12.1604 1.66106L12.1788 1.58409C12.207 1.46966 12.2363 1.35881 12.2665 1.25137L12.2885 1.17633C12.3151 1.08434 12.3428 0.995181 12.3712 0.908695L12.39 0.850592C12.4234 0.752664 12.4575 0.659194 12.4927 0.569439L12.5189 0.505838C12.5507 0.427822 12.5832 0.353671 12.6153 0.282045C12.6213 0.269711 12.6271 0.255891 12.6331 0.243409C12.6715 0.164947 12.7109 0.0912412 12.7511 0.0231819C12.7555 0.0161976 12.7593 0.00698436 12.7636 1.06734e-07L10.1843 0C9.58128 -2.49522e-08 8.73708 2.66293 8.73708 6.9997C8.73708 11.3365 9.58127 13.9994 10.1843 13.9994L12.7666 14Z" fill="#1e61f0"/>
<path d="M14.5528 14C15.352 14 16 10.8662 16 7.00029C16 3.13444 15.352 0.000591727 14.5528 0.000591694C13.7536 0.000591661 13.1056 3.13444 13.1056 7.00029C13.1056 10.8662 13.7536 14 14.5528 14Z" fill="#1e61f0"/>
</svg>

<svg xmlns="http://www.w3.org/2000/svg" width="16" height="14" fill="none"><path fill="#004AB3FF" d="m8.398 14-.013-.023a3.36 3.36 0 0 1-.117-.22l-.018-.039a4.904 4.904 0 0 1-.098-.224l-.026-.063a6.273 6.273 0 0 1-.103-.282l-.019-.058a7.973 7.973 0 0 1-.082-.267l-.022-.075c-.03-.108-.06-.219-.088-.333l-.018-.077c-.025-.1-.047-.201-.07-.304l-.017-.082c-.025-.122-.05-.247-.072-.376l-.016-.092c-.02-.112-.039-.226-.057-.341l-.013-.081c-.02-.135-.04-.272-.058-.411l-.013-.102c-.016-.122-.03-.247-.045-.373l-.008-.075c-.016-.144-.03-.29-.043-.437l-.01-.111a31.28 31.28 0 0 1-.032-.407l-.004-.055c-.01-.152-.02-.305-.028-.457l-.007-.113-.019-.435V8.05c-.006-.156-.01-.311-.013-.466l-.002-.114a29.816 29.816 0 0 1 0-.94l.002-.114.012-.466.001-.036c.006-.145.012-.29.02-.435l.005-.114c.008-.152.017-.304.028-.457l.004-.055c.01-.136.02-.272.033-.407l.01-.11c.013-.147.027-.293.042-.438l.008-.076.044-.372.013-.103c.019-.139.038-.276.059-.41l.012-.082c.018-.115.038-.23.057-.341l.016-.092c.023-.128.047-.253.073-.376l.017-.082c.022-.104.045-.205.069-.304l.018-.077c.028-.114.058-.225.088-.333l.022-.075A7.91 7.91 0 0 1 8.003.91L8.02.85c.034-.098.068-.192.103-.282L8.15.506a5.02 5.02 0 0 1 .098-.224l.018-.039a3.12 3.12 0 0 1 .118-.22L8.396 0h-2.58c-.604 0-1.447 2.663-1.447 7 0 4.336.843 7 1.447 7h2.582ZM4.03 14l-.013-.023a3.355 3.355 0 0 1-.118-.22l-.018-.039a4.904 4.904 0 0 1-.098-.224l-.026-.063a6.285 6.285 0 0 1-.102-.282l-.02-.058a7.95 7.95 0 0 1-.082-.267l-.022-.075c-.03-.108-.06-.219-.088-.333l-.018-.077c-.024-.1-.047-.201-.069-.304l-.017-.082c-.026-.122-.05-.247-.073-.376l-.016-.092c-.02-.112-.038-.226-.056-.341l-.013-.081c-.02-.135-.04-.272-.058-.411-.005-.034-.01-.068-.013-.102-.016-.122-.031-.247-.045-.373l-.009-.075c-.016-.144-.03-.29-.043-.437l-.01-.111-.032-.407-.004-.055a29.73 29.73 0 0 1-.028-.457l-.006-.113c-.008-.145-.014-.29-.02-.435V8.05c-.006-.156-.01-.311-.013-.466L2.9 7.47a29.695 29.695 0 0 1 0-.94l.001-.114c.003-.155.007-.31.013-.466v-.036c.006-.145.012-.29.02-.435l.006-.114.027-.457.005-.055c.01-.136.02-.272.032-.407l.01-.11c.013-.147.027-.293.043-.438l.007-.076c.014-.126.03-.25.045-.372l.013-.103c.018-.139.038-.276.058-.41l.013-.082c.018-.115.037-.23.057-.341l.016-.092c.023-.128.047-.253.072-.376l.017-.082c.023-.104.046-.205.07-.304l.018-.077c.028-.114.057-.225.087-.333l.022-.075c.027-.092.055-.18.083-.267L3.653.85a6.52 6.52 0 0 1 .103-.282l.026-.063a5.02 5.02 0 0 1 .097-.224l.018-.039c.039-.078.078-.152.118-.22L4.028 0h-2.58C.842 0 0 2.663 0 7c0 4.336.843 7 1.447 7H4.03ZM12.767 14l-.013-.023a3.35 3.35 0 0 1-.118-.22l-.018-.039a3.867 3.867 0 0 1-.096-.224l-.026-.063a6.142 6.142 0 0 1-.103-.282l-.019-.058a8.115 8.115 0 0 1-.083-.267l-.022-.075c-.03-.108-.059-.219-.087-.333l-.019-.077c-.024-.1-.046-.201-.069-.304l-.017-.082c-.026-.122-.05-.247-.072-.376l-.016-.092c-.02-.112-.04-.226-.057-.341l-.013-.081c-.02-.135-.04-.272-.058-.411l-.013-.102c-.016-.122-.03-.247-.045-.373l-.008-.075c-.016-.144-.03-.29-.043-.437l-.01-.111a32.01 32.01 0 0 1-.032-.407l-.005-.055c-.01-.152-.019-.305-.027-.457l-.008-.113c-.007-.145-.014-.29-.019-.435l-.001-.036c-.006-.156-.01-.311-.013-.466l-.001-.114a29.458 29.458 0 0 1 0-.94l.002-.114c.002-.155.006-.31.012-.466l.001-.036c.005-.145.012-.29.019-.435l.006-.114.027-.457.005-.055c.01-.136.02-.272.032-.407l.01-.11c.013-.147.027-.293.043-.438l.007-.076c.014-.126.03-.25.045-.372l.013-.103c.018-.139.038-.276.058-.41l.013-.082c.018-.115.037-.23.057-.341l.016-.092c.023-.128.047-.253.072-.376l.018-.082a14.2 14.2 0 0 1 .068-.304l.019-.077c.028-.114.057-.225.088-.333l.022-.075A7.82 7.82 0 0 1 12.37.91L12.39.85c.033-.098.067-.192.103-.282l.026-.063c.032-.078.064-.152.096-.224l.018-.039a3.2 3.2 0 0 1 .118-.22L12.764 0h-2.58c-.603 0-1.447 2.663-1.447 7 0 4.336.844 7 1.447 7h2.583ZM14.553 14C15.352 14 16 10.866 16 7s-.648-7-1.447-7c-.8 0-1.447 3.134-1.447 7s.648 7 1.447 7Z"/></svg>
